images/icons/logo2.svg

<svg width="50" height="50" viewBox="0 0 50 50" fill="none" xmlns="http://www.w3.org/2000/svg">
<g clip-path="url(#clip0_9_2)">
<path d="M49.4531 25C49.4531 38.5156 38.5156 49.4531 25 49.4531C11.4844 49.4531 0.546875 38.5156 0.546875 25C0.546875 11.4844 11.4844 0.546875 25 0.546875C38.5156 0.546875 49.4531 11.4844 49.4531 25ZM25 2.03125C12.2656 2.03125 2.03125 12.2656 2.03125 25C2.03125 37.7344 12.3438 47.9688 25 47.9688C37.7344 47.9688 47.9688 37.6563 47.9688 25C47.9688 12.2656 37.7344 2.03125 25 2.03125Z" fill="url(#paint0_linear_9_2)"/>
<path d="M25 2.03125C12.2656 2.03125 2.03125 12.2656 2.03125 25C2.03125 37.7344 12.3437 47.9688 25 47.9688C37.7344 47.9688 47.9688 37.6562 47.9688 25C47.9688 12.2656 37.7344 2.03125 25 2.03125ZM25 46.4844C13.125 46.4844 3.51562 36.875 3.51562 25C3.51562 13.125 13.125 3.51562 25 3.51562C36.875 3.51562 46.4844 13.125 46.4844 25C46.4844 36.875 36.875 46.4844 25 46.4844Z" fill="url(#paint1_linear_9_2)"/>
<path opacity="0.4" d="M25 49.4531C38.5156 49.4531 49.4531 38.5156 49.4531 25C49.4531 11.4844 38.5156 0.546875 25 0.546875C11.4844 0.546875 0.546875 11.4844 0.546875 25C0.546875 38.5156 11.4844 49.4531 25 49.4531ZM25 0C38.75 0 50 11.25 50 25C50 38.75 38.75 50 25 50C11.25 50 0 38.75 0 25C0 11.25 11.25 0 25 0Z" fill="url(#paint2_linear_9_2)"/>
<path d="M1.71875 25.0781C1.71875 12.2656 12.1094 1.71875 25 1.71875C37.8906 1.71875 48.2813 12.1875 48.2813 25.0781C48.2813 37.8906 37.8906 48.2813 25 48.2813C12.1094 48.2813 1.71875 37.8906 1.71875 25.0781ZM8.98438 8.98438C4.84375 13.125 2.26563 18.8281 2.26563 25.0781C2.26563 31.3281 4.84375 37.0312 8.90625 41.0938C13.0469 45.1562 18.75 47.7344 25 47.7344C31.25 47.7344 36.9531 45.2344 41.0156 41.0938C45.1563 37.0312 47.6563 31.3281 47.6563 25.0781C47.6563 18.8281 45.0781 13.125 41.0156 8.98438C36.9531 4.84375 31.25 2.26563 25 2.26563C18.75 2.26563 13.0469 4.84375 8.98438 8.98438Z" fill="white"/>
<path opacity="0.4" d="M25 46.5625C19.2188 46.5625 13.8281 44.2969 9.76563 40.2344C5.70313 36.1719 3.4375 30.7813 3.4375 25C3.4375 19.2188 5.70313 13.8281 9.76563 9.76563C13.8281 5.70313 19.2188 3.4375 25 3.4375C30.7813 3.4375 36.1719 5.70313 40.2344 9.76563C44.2969 13.8281 46.5625 19.2188 46.5625 25C46.5625 30.7813 44.2969 36.1719 40.2344 40.2344C36.1719 44.2969 30.7813 46.5625 25 46.5625ZM25 45.9375C30.5469 45.9375 35.8594 43.75 39.7656 39.8438C43.75 35.8594 45.8594 30.625 45.8594 25.0781C45.8594 19.5312 43.6719 14.2188 39.7656 10.3125C35.7813 6.32812 30.5469 4.21875 25 4.21875C19.4531 4.21875 14.1406 6.40625 10.2344 10.3125C6.25 14.1406 4.0625 19.4531 4.0625 25C4.0625 30.5469 6.25 35.8594 10.1563 39.7656C14.1406 43.75 19.4531 45.9375 25 45.9375Z" fill="url(#paint3_linear_9_2)"/>
<path d="M43.9844 35.1562C43.5938 34.8437 28.5156 22.8906 28.5156 22.8906L25 2.8125C24.7656 2.89062 24.4531 3.125 24.2969 3.4375L21.7969 22.9687L6.25 34.9219C6.25 34.9219 5.9375 35.3125 5.78125 35.5469C5.70312 35.7031 5.70312 35.9375 5.70312 36.1719L24.9219 28.2812L44.1406 36.1719C44.2969 35.7812 44.1406 35.3906 43.9844 35.1562Z" fill="white"/>
<path d="M25.1563 25.625L25 29.2188L42.6562 36.3281C43.2812 36.6406 43.75 36.4844 44.2188 36.1719L25.3906 25.5469C25.3125 25.4688 25.1563 25.5469 25.1563 25.625Z" fill="#565F64"/>
<path d="M25.1562 25.625C25.1562 25.625 26.1719 27.4219 27.3437 28.6719C28.9844 30.4688 31.1719 31.7188 31.1719 31.7188L42.6562 36.3281C43.2812 36.6406 43.75 36.4844 44.2188 36.1719L25.3906 25.5469C25.3125 25.4688 25.1562 25.5469 25.1562 25.625Z" fill="url(#paint4_linear_9_2)"/>
<path d="M44.1406 35.4688C44.1406 35.3906 44.0625 35.3125 43.9844 35.1563L27.8906 23.3594L25.7031 24.7656C25.7031 24.7656 25.8594 24.8438 25.9375 24.7656C26.1719 24.6875 26.6406 24.6094 27.1094 24.7656C27.5 24.9219 44.1406 35.5469 44.1406 35.5469C44.1406 35.5469 44.1406 35.5469 44.1406 35.4688Z" fill="#A4AAAE" fill-opacity="0.6"/>
<path d="M43.5937 34.7656L28.5937 22.8906L27.8906 23.3594L43.9844 35.2344C43.9062 35.0781 43.75 34.9219 43.5937 34.7656Z" fill="#333E46"/>
<path d="M25.3906 24.4531C25.3125 24.5313 25.3125 24.5313 25.3125 24.5313C25.3125 24.5313 25.3125 24.6875 25.4687 24.6094C25.5469 24.5313 27.8125 23.3594 28.5938 22.8906L25.8594 4.14063C25.7812 3.4375 25.4688 3.125 24.9219 2.89062L25.2344 24.6094L25.3906 24.4531Z" fill="#565F64"/>
<path d="M24.0625 4.14063V5.15625L22.3438 22.4219C22.3438 22.6563 22.4219 22.8906 22.6562 23.0469L23.6719 23.8281L24.375 4.76563L24.4531 3.28125C24.2187 3.4375 24.1406 3.75 24.0625 4.14063Z" fill="#A4AAAE" fill-opacity="0.6"/>
<path d="M23.125 24.1406L22.1875 23.3594L6.32813 34.8438C6.32813 34.8438 5.85938 35.1563 5.78125 35.4688L6.32813 35.1563L22.9688 24.6875C23.2813 24.5313 23.3594 24.375 23.125 24.1406Z" fill="#A4AAAE" fill-opacity="0.6"/>
<path d="M24.7656 25.625C24.7656 25.5469 24.6875 25.4688 24.6094 25.5469L5.70312 36.25C6.17188 36.5625 6.64063 36.6406 7.26563 36.4063L24.9219 29.2969L24.7656 25.625Z" fill="#565F64"/>
<path d="M25.3125 24.5312L25.3906 24.4531C25.3125 24.5312 25.3125 24.5312 25.3125 24.5312C25.3125 24.5312 25.3125 24.6094 25.3906 24.6094H25.4687C25.5469 24.5312 27.8125 23.3594 28.5937 22.8906L28.2812 20.625L25.8594 4.14063C25.8594 3.82813 25.7812 3.59375 25.625 3.4375C25.625 3.4375 26.7969 19.2188 26.7969 20.9375C26.7969 23.2031 25.3125 24.5312 25.3125 24.5312Z" fill="url(#paint5_linear_9_2)"/>
<path d="M24.7656 25.625C24.7656 25.5469 24.6875 25.4688 24.6094 25.5469L5.70312 36.25C6.17188 36.5625 6.64063 36.6406 7.26563 36.4063L24.9219 29.2969L24.7656 25.625Z" fill="url(#paint6_linear_9_2)" fill-opacity="0.8"/>
<path opacity="0.8" d="M7.26563 36.3281L24.9219 29.2188L24.7656 25.7812C24.4531 26.7188 23.9063 27.7344 22.4219 28.5156C21.3281 29.1406 10.8594 34.2969 7.10938 36.0938C6.875 36.25 6.5625 36.3281 6.40625 36.4063C6.71875 36.5625 6.95313 36.4844 7.26563 36.3281Z" fill="url(#paint7_linear_9_2)"/>
<path d="M25.3906 24.4531C25.3125 24.5313 25.3125 24.5313 25.3125 24.5313C25.3125 24.5313 25.3125 24.6875 25.4687 24.6094C25.5469 24.5313 27.8125 23.3594 28.5938 22.8906L25.8594 4.14063C25.7812 3.4375 25.4688 3.125 24.9219 2.89062L25.2344 24.6094L25.3906 24.4531Z" fill="url(#paint8_linear_9_2)"/>
<path d="M25.3906 24.4531C25.3125 24.5313 25.3125 24.5313 25.3125 24.5313C25.3125 24.5313 25.3125 24.6875 25.4687 24.6094C25.5469 24.5313 27.8125 23.3594 28.5938 22.8906L25.8594 4.14063C25.7812 3.4375 25.4688 3.125 24.9219 2.89062L25.2344 24.6094L25.3906 24.4531Z" fill="url(#paint9_linear_9_2)"/>
<path d="M3.98438 34.6875C3.4375 33.4375 0.3125 27.3437 3.75 15.625H2.42188C1.71875 17.9687 1.17188 19.375 0.859375 21.4844C0.859375 21.4844 0.703125 22.2656 0.625 23.125C0.546875 23.9844 0.546875 24.4531 0.546875 25C0.546875 29.6875 1.71875 32.4219 1.71875 32.4219C2.96875 36.3281 5.15625 39.8437 8.125 42.5C10.7031 44.7656 14.6875 46.4844 17.9688 47.1094C17.4219 47.0312 8.04688 43.0469 3.98438 34.6875Z" fill="url(#paint10_linear_9_2)"/>
<path d="M25.3125 25.4688H24.6094C24.6875 25.4688 24.7656 25.4688 24.7656 25.5469L24.9219 29.1406H25L25.1563 25.5469C25.1563 25.4688 25.2344 25.3906 25.3125 25.4688Z" fill="url(#paint11_linear_9_2)"/>
<path d="M32.8125 1.79688C41.0156 4.92187 48.75 13.5156 48.75 24.375C48.75 37.5 38.2812 48.2031 25 48.2031V49.4531C38.2812 49.4531 49.4531 38.5156 49.4531 25C49.4531 14.2187 42.5781 5.15625 32.8125 1.79688Z" fill="url(#paint12_linear_9_2)"/>
<path d="M45.9375 15.7812C40.4688 3.20312 28.125 2.5 27.4219 2.42188C27.4219 2.42188 27.4219 2.42188 27.3438 2.42188C36.7969 4.14062 42.8125 10.3125 44.9219 16.7969V16.875C45.8594 19.375 46.3281 22.0312 46.4063 24.9219C46.4844 27.6562 45.8594 30.7031 44.6875 33.5156C44.6094 33.9063 44.5313 34.375 44.4531 34.375H45.7031C49.4531 27.3438 47.8125 20.2344 45.9375 15.7812Z" fill="url(#paint13_linear_9_2)"/>
<path d="M1.71875 25.0781C1.71875 12.2656 12.1094 1.71875 25 1.71875C37.8906 1.71875 48.2813 12.1875 48.2813 25.0781C48.2813 37.8906 37.8906 48.2813 25 48.2813C12.1094 48.2813 1.71875 37.8906 1.71875 25.0781ZM8.98438 8.98438C4.84375 13.125 2.26563 18.8281 2.26563 25.0781C2.26563 31.3281 4.84375 37.0312 8.90625 41.0938C13.0469 45.1562 18.75 47.7344 25 47.7344C31.25 47.7344 36.9531 45.2344 41.0156 41.0938C45.1563 37.0312 47.6563 31.3281 47.6563 25.0781C47.6563 18.8281 45.0781 13.125 41.0156 8.98438C36.9531 4.84375 31.25 2.26563 25 2.26563C18.75 2.26563 13.0469 4.84375 8.98438 8.98438Z" fill="#FBFBFB"/>
<path d="M6.17188 35L22.1094 23.5156C22.9688 23.9844 24.375 24.6094 24.5312 24.6094C24.6875 24.6875 24.6875 24.5313 24.6875 24.5313L22.7344 22.8906C22.5 22.7344 22.4219 22.5 22.4219 22.2656L24.2969 3.4375C24.2188 3.51563 24.2188 3.67188 24.1406 3.75C24.0625 3.90625 24.0625 3.98438 24.0625 4.14063L21.3281 22.9688L6.32813 34.7656C6.25 34.8438 6.17188 34.9219 6.17188 35Z" fill="#333F47"/>
</g>
<defs>
<linearGradient id="paint0_linear_9_2" x1="6.25" y1="9.29688" x2="43.75" y2="40.7031" gradientUnits="userSpaceOnUse">
<stop stop-color="white"/>
<stop offset="0.1" stop-color="#CDD0D0"/>
<stop offset="0.2" stop-color="#A5ACAF"/>
<stop offset="0.3" stop-color="#98A0A4"/>
<stop offset="0.4" stop-color="#828A8F"/>
<stop offset="0.5" stop-color="#667075"/>
<stop offset="0.6" stop-color="#535C63"/>
<stop offset="0.7" stop-color="#475158"/>
<stop offset="0.8" stop-color="#434D54"/>
<stop offset="1" stop-color="#475157"/>
</linearGradient>
<linearGradient id="paint1_linear_9_2" x1="7.42188" y1="10.2344" x2="42.5781" y2="39.7656" gradientUnits="userSpaceOnUse">
<stop stop-color="#0B1F2A"/>
<stop offset="0.2" stop-color="#333F47"/>
<stop offset="0.5" stop-color="#81898D"/>
<stop offset="0.7" stop-color="#B3B8B8"/>
<stop offset="0.8" stop-color="#DEE0DD"/>
<stop offset="1" stop-color="#FBFBFB"/>
</linearGradient>
<linearGradient id="paint2_linear_9_2" x1="33.5723" y1="48.5212" x2="16.463" y2="1.48992" gradientUnits="userSpaceOnUse">
<stop stop-color="#E1E3E1"/>
<stop offset="0.1" stop-color="#C1C5C4"/>
<stop offset="0.3" stop-color="#9BA1A2"/>
<stop offset="0.5" stop-color="#7D8487"/>
<stop offset="0.7" stop-color="#687074" stop-opacity="0"/>
<stop offset="0.8" stop-color="#5B6469" stop-opacity="0"/>
<stop offset="1" stop-color="#576065" stop-opacity="0"/>
</linearGradient>
<linearGradient id="paint3_linear_9_2" x1="14.2188" y1="6.32812" x2="35.7813" y2="43.6719" gradientUnits="userSpaceOnUse">
<stop stop-color="#E1E3E1"/>
<stop offset="0.1" stop-color="#C1C5C4"/>
<stop offset="0.3" stop-color="#9BA1A2"/>
<stop offset="0.5" stop-color="#7D8487"/>
<stop offset="0.7" stop-color="#687074" stop-opacity="0"/>
<stop offset="0.8" stop-color="#5B6469" stop-opacity="0"/>
<stop offset="1" stop-color="#576065" stop-opacity="0"/>
</linearGradient>
<linearGradient id="paint4_linear_9_2" x1="34.7656" y1="30.7813" x2="33.4375" y2="32.9688" gradientUnits="userSpaceOnUse">
<stop stop-color="#27343C"/>
<stop offset="1" stop-color="#00111E" stop-opacity="0"/>
</linearGradient>
<linearGradient id="paint5_linear_9_2" x1="30.9375" y1="22.7344" x2="28.75" y2="19.2188" gradientUnits="userSpaceOnUse">
<stop offset="0.1" stop-color="#02131F"/>
<stop offset="0.9" stop-color="#02131F" stop-opacity="0"/>
</linearGradient>
<linearGradient id="paint6_linear_9_2" x1="25" y1="28.4375" x2="21.7188" y2="29.375" gradientUnits="userSpaceOnUse">
<stop offset="0.2" stop-color="#02131F"/>
<stop offset="0.9" stop-color="#02131F" stop-opacity="0"/>
</linearGradient>
<linearGradient id="paint7_linear_9_2" x1="16.25" y1="32.7344" x2="15.7813" y2="31.5625" gradientUnits="userSpaceOnUse">
<stop stop-color="#02131F"/>
<stop offset="0.1" stop-color="#02131F"/>
<stop offset="1" stop-color="#02131F" stop-opacity="0"/>
</linearGradient>
<linearGradient id="paint8_linear_9_2" x1="27.8125" y1="13.4375" x2="25.1563" y2="13.75" gradientUnits="userSpaceOnUse">
<stop offset="0.3" stop-color="#02131F"/>
<stop offset="0.8" stop-color="#02131F" stop-opacity="0"/>
</linearGradient>
<linearGradient id="paint9_linear_9_2" x1="27.8906" y1="13.3594" x2="26.0938" y2="13.5938" gradientUnits="userSpaceOnUse">
<stop offset="0.4" stop-color="#27343C"/>
<stop offset="1" stop-color="#3B474E" stop-opacity="0"/>
</linearGradient>
<linearGradient id="paint10_linear_9_2" x1="-0.3125" y1="25.7031" x2="21.4844" y2="38.2813" gradientUnits="userSpaceOnUse">
<stop stop-color="#25323B" stop-opacity="0"/>
<stop offset="0.1" stop-color="#27343C"/>
</linearGradient>
<linearGradient id="paint11_linear_9_2" x1="25" y1="29.2188" x2="25" y2="25.4688" gradientUnits="userSpaceOnUse">
<stop offset="0.3" stop-color="#A5ABAF"/>
<stop offset="1" stop-color="#A5ABAF" stop-opacity="0"/>
</linearGradient>
<linearGradient id="paint12_linear_9_2" x1="37.2656" y1="1.79688" x2="37.2656" y2="49.4531" gradientUnits="userSpaceOnUse">
<stop stop-color="#6B7378"/>
<stop offset="0.2" stop-color="#333F47"/>
<stop offset="0.5" stop-color="#27343C"/>
<stop offset="0.8" stop-color="#333F47"/>
<stop offset="1" stop-color="#434D54"/>
</linearGradient>
<linearGradient id="paint13_linear_9_2" x1="44.7656" y1="6.32812" x2="34.2188" y2="21.7969" gradientUnits="userSpaceOnUse">
<stop offset="0.7" stop-color="#49545B"/>
<stop offset="0.8" stop-color="white" stop-opacity="0"/>
</linearGradient>
<clipPath id="clip0_9_2">
<rect width="50" height="50" fill="white"/>
</clipPath>
</defs>
</svg>

<svg xmlns="http://www.w3.org/2000/svg" width="50" height="50" fill="none"><g clip-path="url(#a)"><path fill="url(#b)" d="M49.453 25c0 13.516-10.937 24.453-24.453 24.453S.547 38.516.547 25 11.484.547 25 .547 49.453 11.484 49.453 25ZM25 2.031A22.906 22.906 0 0 0 2.031 25c0 12.734 10.313 22.969 22.969 22.969 12.734 0 22.969-10.313 22.969-22.969A22.906 22.906 0 0 0 25 2.031Z"/><path fill="url(#c)" d="M25 2.031A22.906 22.906 0 0 0 2.031 25c0 12.734 10.313 22.969 22.969 22.969 12.734 0 22.969-10.313 22.969-22.969A22.906 22.906 0 0 0 25 2.031Zm0 44.453C13.125 46.484 3.516 36.875 3.516 25 3.516 13.125 13.125 3.516 25 3.516c11.875 0 21.484 9.609 21.484 21.484 0 11.875-9.609 21.484-21.484 21.484Z"/><path fill="url(#d)" d="M25 49.453c13.516 0 24.453-10.937 24.453-24.453S38.516.547 25 .547.547 11.484.547 25 11.484 49.453 25 49.453ZM25 0c13.75 0 25 11.25 25 25S38.75 50 25 50 0 38.75 0 25 11.25 0 25 0Z" opacity=".4"/><path fill="#fff" d="M1.719 25.078c0-12.812 10.39-23.36 23.281-23.36 12.89 0 23.281 10.47 23.281 23.36 0 12.813-10.39 23.203-23.281 23.203-12.89 0-23.281-10.39-23.281-23.203ZM8.984 8.984c-4.14 4.141-6.718 9.844-6.718 16.094a22.68 22.68 0 0 0 6.64 16.016c4.14 4.062 9.844 6.64 16.094 6.64 6.25 0 11.953-2.5 16.016-6.64 4.14-4.063 6.64-9.766 6.64-16.016 0-6.25-2.578-11.953-6.64-16.094A22.424 22.424 0 0 0 25 2.266 22.424 22.424 0 0 0 8.984 8.984Z"/><path fill="url(#e)" d="M25 46.563c-5.781 0-11.172-2.266-15.234-6.329C5.703 36.172 3.437 30.781 3.437 25c0-5.781 2.266-11.172 6.329-15.234C13.828 5.703 19.219 3.437 25 3.437c5.781 0 11.172 2.266 15.234 6.329 4.063 4.062 6.328 9.453 6.328 15.234 0 5.781-2.265 11.172-6.328 15.234-4.062 4.063-9.453 6.328-15.234 6.328Zm0-.626a20.87 20.87 0 0 0 14.766-6.093c3.984-3.985 6.093-9.219 6.093-14.766a20.87 20.87 0 0 0-6.093-14.765C35.78 6.328 30.546 4.218 25 4.218a20.87 20.87 0 0 0-14.766 6.093C6.25 14.142 4.063 19.453 4.063 25a20.87 20.87 0 0 0 6.093 14.766c3.985 3.984 9.297 6.172 14.844 6.172Z" opacity=".4"/><path fill="#fff" d="M43.984 35.156c-.39-.312-15.468-12.265-15.468-12.265L25 2.813a1.334 1.334 0 0 0-.703.624l-2.5 19.532L6.25 34.922s-.313.39-.469.625c-.078.156-.078.39-.078.625l19.219-7.89 19.219 7.89c.156-.39 0-.781-.157-1.016Z"/><path fill="#565F64" d="M25.156 25.625 25 29.219l17.656 7.11c.625.312 1.094.155 1.563-.157L25.39 25.547c-.078-.078-.235 0-.235.078Z"/><path fill="url(#f)" d="M25.156 25.625s1.016 1.797 2.188 3.047c1.64 1.797 3.828 3.047 3.828 3.047l11.484 4.61c.625.312 1.094.155 1.563-.157L25.39 25.547c-.078-.078-.235 0-.235.078Z"/><path fill="#A4AAAE" fill-opacity=".6" d="M44.14 35.469c0-.078-.078-.157-.156-.313L27.891 23.36l-2.188 1.407s.156.078.235 0a1.956 1.956 0 0 1 1.171 0c.391.156 17.032 10.78 17.032 10.78v-.077Z"/><path fill="#333E46" d="m43.594 34.766-15-11.875-.703.468 16.093 11.875c-.078-.156-.234-.312-.39-.468Z"/><path fill="#565F64" d="m25.39 24.453-.078.078s0 .157.157.078c.078-.078 2.343-1.25 3.125-1.718L25.859 4.14c-.078-.704-.39-1.016-.937-1.25l.312 21.718.157-.156Z"/><path fill="#A4AAAE" fill-opacity=".6" d="M24.063 4.14v1.016l-1.72 17.266c0 .234.079.469.313.625l1.016.781.703-19.062.078-1.485c-.234.156-.312.469-.39.86ZM23.125 24.14l-.938-.78L6.329 34.843s-.469.312-.547.625l.547-.313 16.64-10.468c.313-.157.391-.313.157-.547Z"/><path fill="#565F64" d="M24.766 25.625c0-.078-.078-.156-.157-.078L5.703 36.25c.469.313.938.39 1.563.156l17.656-7.11-.156-3.671Z"/><path fill="url(#g)" d="m25.313 24.531.078-.078-.078.078s0 .078.078.078h.078c.078-.078 2.343-1.25 3.125-1.718l-.313-2.266L25.86 4.141c0-.313-.078-.547-.234-.704 0 0 1.172 15.782 1.172 17.5 0 2.266-1.485 3.594-1.485 3.594Z"/><path fill="url(#h)" fill-opacity=".8" d="M24.766 25.625c0-.078-.078-.156-.157-.078L5.703 36.25c.469.313.938.39 1.563.156l17.656-7.11-.156-3.671Z"/><path fill="url(#i)" d="m7.266 36.328 17.656-7.11-.156-3.437c-.313.938-.86 1.953-2.344 2.735-1.094.625-11.563 5.78-15.313 7.578-.234.156-.546.234-.703.312.313.157.547.078.86-.078Z" opacity=".8"/><path fill="url(#j)" d="m25.39 24.453-.078.078s0 .157.157.078c.078-.078 2.343-1.25 3.125-1.718L25.859 4.14c-.078-.704-.39-1.016-.937-1.25l.312 21.718.157-.156Z"/><path fill="url(#k)" d="m25.39 24.453-.078.078s0 .157.157.078c.078-.078 2.343-1.25 3.125-1.718L25.859 4.14c-.078-.704-.39-1.016-.937-1.25l.312 21.718.157-.156Z"/><path fill="url(#l)" d="M3.984 34.688c-.546-1.25-3.671-7.344-.234-19.063H2.422c-.703 2.344-1.25 3.75-1.563 5.86 0 0-.156.78-.234 1.64-.078.86-.078 1.328-.078 1.875 0 4.688 1.172 7.422 1.172 7.422 1.25 3.906 3.437 7.422 6.406 10.078 2.578 2.266 6.563 3.984 9.844 4.61-.547-.079-9.922-4.063-13.985-12.422Z"/><path fill="url(#m)" d="M25.313 25.469h-.704c.078 0 .157 0 .157.078l.156 3.594H25l.156-3.594c0-.078.078-.156.157-.078Z"/><path fill="url(#n)" d="M32.813 1.797C41.016 4.922 48.75 13.516 48.75 24.375 48.75 37.5 38.281 48.203 25 48.203v1.25c13.281 0 24.453-10.937 24.453-24.453 0-10.781-6.875-19.844-16.64-23.203Z"/><path fill="url(#o)" d="M45.938 15.781C40.468 3.203 28.125 2.5 27.422 2.421h-.078c9.453 1.72 15.468 7.892 17.578 14.376v.078c.937 2.5 1.406 5.156 1.484 8.047.078 2.734-.547 5.781-1.718 8.594-.079.39-.157.859-.235.859h1.25c3.75-7.031 2.11-14.14.234-18.594Z"/><path fill="#FBFBFB" d="M1.719 25.078c0-12.812 10.39-23.36 23.281-23.36 12.89 0 23.281 10.47 23.281 23.36 0 12.813-10.39 23.203-23.281 23.203-12.89 0-23.281-10.39-23.281-23.203ZM8.984 8.984c-4.14 4.141-6.718 9.844-6.718 16.094a22.68 22.68 0 0 0 6.64 16.016c4.14 4.062 9.844 6.64 16.094 6.64 6.25 0 11.953-2.5 16.016-6.64 4.14-4.063 6.64-9.766 6.64-16.016 0-6.25-2.578-11.953-6.64-16.094A22.424 22.424 0 0 0 25 2.266 22.424 22.424 0 0 0 8.984 8.984Z"/><path fill="#333F47" d="m6.172 35 15.937-11.484c.86.468 2.266 1.093 2.422 1.093.157.078.157-.078.157-.078l-1.954-1.64c-.234-.157-.312-.391-.312-.625l1.875-18.828c-.078.078-.078.234-.156.312-.078.156-.078.234-.078.39L21.328 22.97l-15 11.797c-.078.078-.156.156-.156.234Z"/></g><defs><linearGradient id="b" x1="6.25" x2="43.75" y1="9.297" y2="40.703" gradientUnits="userSpaceOnUse"><stop stop-color="#fff"/><stop offset=".1" stop-color="#CDD0D0"/><stop offset=".2" stop-color="#A5ACAF"/><stop offset=".3" stop-color="#98A0A4"/><stop offset=".4" stop-color="#828A8F"/><stop offset=".5" stop-color="#667075"/><stop offset=".6" stop-color="#535C63"/><stop offset=".7" stop-color="#475158"/><stop offset=".8" stop-color="#434D54"/><stop offset="1" stop-color="#475157"/></linearGradient><linearGradient id="c" x1="7.422" x2="42.578" y1="10.234" y2="39.766" gradientUnits="userSpaceOnUse"><stop stop-color="#0B1F2A"/><stop offset=".2" stop-color="#333F47"/><stop offset=".5" stop-color="#81898D"/><stop offset=".7" stop-color="#B3B8B8"/><stop offset=".8" stop-color="#DEE0DD"/><stop offset="1" stop-color="#FBFBFB"/></linearGradient><linearGradient id="d" x1="33.572" x2="16.463" y1="48.521" y2="1.49" gradientUnits="userSpaceOnUse"><stop stop-color="#E1E3E1"/><stop offset=".1" stop-color="#C1C5C4"/><stop offset=".3" stop-color="#9BA1A2"/><stop offset=".5" stop-color="#7D8487"/><stop offset=".7" stop-color="#687074" stop-opacity="0"/><stop offset=".8" stop-color="#5B6469" stop-opacity="0"/><stop offset="1" stop-color="#576065" stop-opacity="0"/></linearGradient><linearGradient id="e" x1="14.219" x2="35.781" y1="6.328" y2="43.672" gradientUnits="userSpaceOnUse"><stop stop-color="#E1E3E1"/><stop offset=".1" stop-color="#C1C5C4"/><stop offset=".3" stop-color="#9BA1A2"/><stop offset=".5" stop-color="#7D8487"/><stop offset=".7" stop-color="#687074" stop-opacity="0"/><stop offset=".8" stop-color="#5B6469" stop-opacity="0"/><stop offset="1" stop-color="#576065" stop-opacity="0"/></linearGradient><linearGradient id="f" x1="34.766" x2="33.438" y1="30.781" y2="32.969" gradientUnits="userSpaceOnUse"><stop stop-color="#27343C"/><stop offset="1" stop-color="#00111E" stop-opacity="0"/></linearGradient><linearGradient id="g" x1="30.938" x2="28.75" y1="22.734" y2="19.219" gradientUnits="userSpaceOnUse"><stop offset=".1" stop-color="#02131F"/><stop offset=".9" stop-color="#02131F" stop-opacity="0"/></linearGradient><linearGradient id="h" x1="25" x2="21.719" y1="28.438" y2="29.375" gradientUnits="userSpaceOnUse"><stop offset=".2" stop-color="#02131F"/><stop offset=".9" stop-color="#02131F" stop-opacity="0"/></linearGradient><linearGradient id="i" x1="16.25" x2="15.781" y1="32.734" y2="31.563" gradientUnits="userSpaceOnUse"><stop stop-color="#02131F"/><stop offset=".1" stop-color="#02131F"/><stop offset="1" stop-color="#02131F" stop-opacity="0"/></linearGradient><linearGradient id="j" x1="27.813" x2="25.156" y1="13.438" y2="13.75" gradientUnits="userSpaceOnUse"><stop offset=".3" stop-color="#02131F"/><stop offset=".8" stop-color="#02131F" stop-opacity="0"/></linearGradient><linearGradient id="k" x1="27.891" x2="26.094" y1="13.359" y2="13.594" gradientUnits="userSpaceOnUse"><stop offset=".4" stop-color="#27343C"/><stop offset="1" stop-color="#3B474E" stop-opacity="0"/></linearGradient><linearGradient id="l" x1="-.313" x2="21.484" y1="25.703" y2="38.281" gradientUnits="userSpaceOnUse"><stop stop-color="#25323B" stop-opacity="0"/><stop offset=".1" stop-color="#27343C"/></linearGradient><linearGradient id="m" x1="25" x2="25" y1="29.219" y2="25.469" gradientUnits="userSpaceOnUse"><stop offset=".3" stop-color="#A5ABAF"/><stop offset="1" stop-color="#A5ABAF" stop-opacity="0"/></linearGradient><linearGradient id="n" x1="37.266" x2="37.266" y1="1.797" y2="49.453" gradientUnits="userSpaceOnUse"><stop stop-color="#6B7378"/><stop offset=".2" stop-color="#333F47"/><stop offset=".5" stop-color="#27343C"/><stop offset=".8" stop-color="#333F47"/><stop offset="1" stop-color="#434D54"/></linearGradient><linearGradient id="o" x1="44.766" x2="34.219" y1="6.328" y2="21.797" gradientUnits="userSpaceOnUse"><stop offset=".7" stop-color="#49545B"/><stop offset=".8" stop-color="#fff" stop-opacity="0"/></linearGradient><clipPath id="a"><path fill="#fff" d="M0 0h50v50H0z"/></clipPath></defs></svg>
